packages/components/svg/solid/eject.svg

<svg width="24" height="24" viewBox="0 0 24 24" fill="none" xmlns="http://www.w3.org/2000/svg">
  <path
    d="M17 15C18.6569 15 20 16.3431 20 18C20 19.6569 18.6569 21 17 21H7C5.34315 21 4 19.6569 4 18C4 16.3431 5.34315 15 7 15H17Z"
    fill="currentColor" />
  <path
    d="M12 2C12.7662 2 13.5355 2.29332 14.1211 2.87891L19.1211 7.87891C19.7067 8.4645 20 9.23378 20 10C20 10.3478 19.9372 10.6823 19.8271 10.9951C19.8093 11.0459 19.7931 11.0975 19.7725 11.1475C19.7362 11.2351 19.6953 11.3217 19.6504 11.4062C19.6251 11.4539 19.5952 11.4988 19.5674 11.5449C19.5445 11.5829 19.5237 11.6221 19.499 11.6592C19.4696 11.7035 19.436 11.7446 19.4043 11.7871C19.378 11.8225 19.3533 11.8592 19.3252 11.8936C19.2636 11.9691 19.1993 12.0422 19.1309 12.1113C19.1276 12.1147 19.1243 12.1179 19.1211 12.1211L19.1201 12.1201C18.5783 12.6619 17.8282 13 17 13H7C6.17182 13 5.42169 12.6619 4.87988 12.1201L4.87891 12.1211C4.87567 12.1179 4.87237 12.1146 4.86914 12.1113C4.80068 12.0422 4.73638 11.9691 4.6748 11.8936C4.64674 11.8592 4.62204 11.8225 4.5957 11.7871C4.56404 11.7446 4.53041 11.7035 4.50098 11.6592C4.47632 11.6221 4.45547 11.5829 4.43262 11.5449C4.40485 11.4988 4.37495 11.4539 4.34961 11.4062C4.30475 11.3217 4.26382 11.2351 4.22754 11.1475C4.20686 11.0975 4.19071 11.0459 4.17285 10.9951C4.06276 10.6823 4 10.3478 4 10C4 9.23378 4.29332 8.4645 4.87891 7.87891L9.87891 2.87891C10.4645 2.29332 11.2338 2 12 2Z"
    fill="currentColor" />
</svg>

<svg xmlns="http://www.w3.org/2000/svg" width="24" height="24" fill="currentColor" viewBox="0 0 24 24">
  <path  d="M17 15a3 3 0 1 1 0 6H7a3 3 0 1 1 0-6h10ZM12 2c.766 0 1.536.293 2.121.879l5 5a2.993 2.993 0 0 1 .706 3.116c-.018.05-.034.103-.055.153a3 3 0 0 1-.122.258c-.025.048-.055.093-.083.139-.023.038-.043.077-.068.114-.03.044-.063.086-.095.128-.026.035-.05.072-.079.107a3.042 3.042 0 0 1-.194.217l-.01.01A2.992 2.992 0 0 1 17 13H7a2.992 2.992 0 0 1-2.12-.88l-.001.001a3.023 3.023 0 0 1-.204-.228c-.028-.034-.053-.07-.08-.106-.031-.042-.065-.084-.094-.128-.025-.037-.046-.076-.068-.114-.028-.046-.058-.091-.083-.139a3.005 3.005 0 0 1-.122-.258c-.021-.05-.037-.102-.055-.153a2.993 2.993 0 0 1 .706-3.116l5-5A2.993 2.993 0 0 1 12 2Z"/>
</svg>
